icons/cursor.svg

<svg xmlns="http://www.w3.org/2000/svg" viewBox="0 0 24 24" fill="currentColor">
  <path d="m6.77126 5.37254 9.43764 2.47735.0696.03483c.231.1155.5138.3412.6203.71397.1219.42647-.0486.81398-.3081 1.0735L9.67221 16.5907c-.25954.2596-.64709.43-1.07357.3081-.37274-.1066-.59841-.3893-.71389-.6203l-.03483-.0697-2.47738-9.43758c-.10903-.353-.08967-.81146.24884-1.14992.33848-.33845.79691-.35777 1.14988-.24876Zm.20625 1.60496 2.11801 8.0686 5.95058-5.95061L6.97751 6.9775Zm8.55259 1.63403c-.0001.00003 0-.00004 0 0Z"/>
  <path d="M12.1295 12.1295c.2929-.2929.7677-.2929 1.0606 0l5.2769 5.2768c.2928.2929.2928.7678 0 1.0607-.2929.2928-.7678.2928-1.0607 0l-5.2768-5.2769c-.2929-.2929-.2929-.7677 0-1.0606Z"/>
</svg>

<svg width="24" height="24" viewBox="0 0 24 24" fill="none" xmlns="http://www.w3.org/2000/svg">
<path fill-rule="evenodd" clip-rule="evenodd" d="M6.77126 5.37254L16.2089 7.84989L16.2785 7.88472C16.5095 8.00022 16.7923 8.22592 16.8988 8.59869C17.0207 9.02516 16.8502 9.41267 16.5907 9.67219L9.67221 16.5907C9.41267 16.8503 9.02512 17.0207 8.59864 16.8988C8.2259 16.7922 8.00023 16.5095 7.88475 16.2785L7.84992 16.2088L5.37254 6.77122C5.26351 6.41822 5.28287 5.95976 5.62138 5.6213C5.95986 5.28285 6.41829 5.26353 6.77126 5.37254ZM6.97751 6.9775L9.09552 15.0461L15.0461 9.09549L6.97751 6.9775ZM15.5301 8.61153C15.53 8.61156 15.5301 8.61149 15.5301 8.61153Z" fill="black"/>
<path fill-rule="evenodd" clip-rule="evenodd" d="M12.1295 12.1295C12.4224 11.8366 12.8972 11.8366 13.1901 12.1295L18.467 17.4063C18.7598 17.6992 18.7598 18.1741 18.467 18.467C18.1741 18.7598 17.6992 18.7598 17.4063 18.467L12.1295 13.1901C11.8366 12.8972 11.8366 12.4224 12.1295 12.1295Z" fill="black"/>
</svg>
